static/fa/svgs/solid/shekel-sign.svg

<svg xmlns="http://www.w3.org/2000/svg" viewBox="0 0 448 512"><!--! Font Awesome Free 6.1.1 by @fontawesome - https://fontawesome.com License - https://fontawesome.com/license/free (Icons: CC BY 4.0, Fonts: SIL OFL 1.1, Code: MIT License) Copyright 2022 Fonticons, Inc.--><path d="M192 32c70.7 0 128 57.31 128 128v160c0 17.7-14.3 32-32 32s-32-14.3-32-32V160c0-35.3-28.7-64-64-64H64v352c0 17.7-14.33 32-32 32S0 465.7 0 448V64c0-17.67 14.33-32 32-32h160zm-32 448c-17.7 0-32-14.3-32-32V192c0-17.7 14.3-32 32-32s32 14.3 32 32v224h128c35.3 0 64-28.7 64-64V64c0-17.67 14.3-32 32-32s32 14.33 32 32v288c0 70.7-57.3 128-128 128H160z"/></svg>

<svg xmlns="http://www.w3.org/2000/svg" viewBox="0 0 448 512"><!--! Font Awesome Free 6.1.1 by @fontawesome - https://fontawesome.com License - https://fontawesome.com/license/free (Icons: CC BY 4.0, Fonts: SIL OFL 1.1, Code: MIT License) Copyright 2022 Fonticons, Inc. --><path d="M192 32C262.7 32 320 89.31 320 160V320C320 337.7 305.7 352 288 352C270.3 352 256 337.7 256 320V160C256 124.7 227.3 96 192 96H64V448C64 465.7 49.67 480 32 480C14.33 480 0 465.7 0 448V64C0 46.33 14.33 32 32 32H192zM160 480C142.3 480 128 465.7 128 448V192C128 174.3 142.3 160 160 160C177.7 160 192 174.3 192 192V416H320C355.3 416 384 387.3 384 352V64C384 46.33 398.3 32 416 32C433.7 32 448 46.33 448 64V352C448 422.7 390.7 480 320 480H160z"/></svg>
